X:1
T:El Submarino Peral.
T:El Submarino Peral.
T:PASA CALLE
T:por Lorzeno Suarez.
T: A  S. M. la Beina Regente de España. 
T:A. 7225. V.
T:A. 7225. V.
C:por Lorzeno Suarez.
Z:A. 7225. V.
%%score { 1 | 2 }
L:1/8
Q:1/4=90
M:2/4
K:C
V:1 treble nm="Piano" snm="Pno."
V:2 bass 
V:1
"^Marcial."!ff! [cc']2 [Gg]2 | [ee']2 [cc'][ee'] | ([dbd'][cac'][Bgb][cac']) | [dbd']2 z2 | %4
 [ff']2 [dd']2 | [Bb]2!8va(! [af'a']2 | ([ge'g'][fd'f'][ec'e'][fd'f']) | [ge'g']2!8va)! z2 | %8
 [cc']2 [Gg]2 | [ee']2 [cc']2 | [cc']2 [Bb][_B_b] | [Aa]2 z2 | [Afa][Bgb][cac'][dbd'] | %13
 [ec'e'][fd'f'] [ge'g']2 |!8va(! [bd'g']2 [bd'f'][bd'f'] | [c'e'g']2!8va)! z2 |: %16
[K:Ab]!ff!!8va(! (c'2 d'2 |!<(! e'4)!<)! | (e'f'g'a') | !>!a'2 g'2 | (b2 c'2 | d'4) | (d'e'f'g') | %23
 !>!f'2 e'2 | (c'2 d'2 |!<(! e'4)!<)! | (e'f'g'a') | g'2 f'2 | f'g'a'b' | c''!8va)!a/e/ ce | %30
 df/d/ Be |1 A2 z2 :|2 A2 z (e/e/ || aecA | e2) z2 | [GBdeg][GBdeg][GBdeg][GBdeg] | %36
 [GBdeg][GBdeg][GBdeg][GBdeg] | [Acea]2 z [deg] | [cea][deg][cea][deg] | [cea]2 [cea]>[cea] | %40
 [cea]2 z2!fine! |:!pp!"^TRIO." [CE]2 ([=B,=D]>[DF]) | [CE]c/c/ !>!c' z | [Ac]2 ([GB]>[Bd] | %44
 [Ac])e/e/ e' z | [Bd]>[Ac] [GB]>[FA] | [EG]2 [df]2 | ([ce]>[Bd] [Ac]>[Bd]) | [ce]2 z2 | %49
!pp! [CE]2 ([=B,=D]>[DF]) | [CE]c/c/ !>!c' z | [CE]>[DF] [EG]>[FA] | [DF]d/d/ d' z | %53
!mf! [Ff]>[Gg] [Aa]>[Bb] | [cc']>[dd'] [=d=d']>[ee'] | [ff']>[ee'] [dd']>[Bb] | %56
 [Aa]2"^D.C." z2!D.C.! :| %57
V:2
 [C,,C,]2 [E,,E,]2 | [G,,G,]2 [C,C]2 | ([G,,G,][A,,A,][B,,B,][C,C]) | ([D,D][C,C][B,,B,][A,,A,]) | %4
 [G,,G,]2 [B,,B,]2 | [D,D]2 [B,,B,]2 | ([C,C][D,D][E,E][F,F]) | ([G,G][F,F][E,E][D,D]) | %8
 [C,C]2 [G,,G,]2 | [E,,E,]2 [C,,C,]2 | [C,,C,]2 [D,,D,][E,,E,] | [F,,F,]2 z2 | %12
 [F,,F,][G,,G,][A,,A,][B,,B,] | [C,C][D,D] [E,E]2 | [G,,G,]2 [G,,G,][G,,G,] | [C,,C,]2 z2 |: %16
[K:Ab] [A,,A,]E,[A,C]E, | E,[A,C]C,[A,C] | ([C,C][D,D][E,E][F,F]) | [E,,E,][B,D]G,[B,D] | %20
"_A Vidal Ancha 35 Barcelona." [E,,E,][B,D]G,[B,D] | [E,,E,][B,D]G,[B,D] | %22
 ([B,,B,][C,C][D,D][E,E]) | [A,,A,][A,C]E,[A,C] | [A,,A,][A,C]E,[A,C] | [A,,A,][A,C]E,[A,C] | %26
 ([C,C][D,D][E,E][F,F]) | D,[A,D]F,[A,D] | D,[A,D]F,[A,D] | [A,,A,][A,C]E,[A,C] | %30
 [E,,E,]E,[B,D]E, |1 [A,,A,]2 z2 :|2 [A,,A,]2 z (E/E/ || AECA, | E2) z2 | %35
 [E,,E,][F,,F,][G,,G,][A,,A,] | [B,,B,][C,C][D,D][B,,B,] | [A,,A,]2 z [E,,E,] | %38
 [A,,A,][E,,E,][A,,A,][E,,E,] | [A,,A,]2 [E,E]>[C,C] | [A,,A,]2"^Fin." z2 |: A,,E,A,E, | %42
 A,,E,A,E, | A,,E,A,E, | A,,E,A,E, | [E,,E,]E,[B,D]E, | [E,,E,]E,[B,D]E, | [A,,A,]E,[A,C]E, | %48
 ([A,,A,][E,E][D,D][B,,B,]) | [A,,A,]E,A,E, | A,,E,A,E, | A,,E,A,E, | D,A,DA, | D,A,DA, | E,A,CA, | %55
 E,B,DB, | [A,,A,]2 z2 :| %57

